; generated by Slic3r 1.2.9 on 2015-12-28 at 05:08:30

; external perimeters extrusion width = 0.50mm
; perimeters extrusion width = 0.72mm
; infill extrusion width = 0.72mm
; solid infill extrusion width = 0.72mm
; top infill extrusion width = 0.72mm

M107
M104 S200 ; set temperature
G28 ; home all axes
G1 Z5 F5000 ; lift nozzle

M109 S200 ; wait for temperature to be reached
G21 ; set units to millimeters
G90 ; use absolute coordinates
M82 ; use absolute distances for extrusion
G92 E0
G1 Z0.350 F7800.000
G1 E-2.00000 F2400.00000
G92 E0
G1 X66.963 Y46.503 F7800.000
G1 E2.00000 F2400.00000
G1 X68.715 Y45.024 E2.07096 F1800.000
G1 X70.867 Y44.231 E2.14192
G1 X72.047 Y44.125 E2.17858
G1 X121.047 Y44.125 E3.69470
G1 X123.306 Y44.522 E3.76566
G1 X125.294 Y45.665 E3.83662 F1800.000
G1 X126.773 Y47.418 E3.90759
G1 X127.663 Y50.404 E4.00399
G1 X131.672 Y127.250 E6.38494
G1 X131.672 Y149.250 E7.06565
G1 X131.275 Y151.509 E7.13661
G1 X130.132 Y153.497 E7.20757
G1 X128.379 Y154.976 E7.27853
G1 X126.227 Y155.769 E7.34949
G1 X125.047 Y155.875 E7.38615
G1 X77.047 Y155.875 E8.87133
G1 X74.788 Y155.478 E8.94229
G1 X72.800 Y154.335 E9.01325
G1 X71.321 Y152.582 E9.08422
G1 X70.433 Y149.628 E9.17966
G1 X65.433 Y62.057 E11.89364
G1 X65.422 Y50.750 E12.24348
G1 X65.819 Y48.491 E12.31444
G1 X66.925 Y46.568 E12.38308
G1 E10.38308 F2400.00000
G92 E0
G1 X124.097 Y128.200 F7800.000
G1 E2.00000 F2400.00000
G1 X124.097 Y148.300 E2.62192 F1800.000
G1 X77.997 Y148.300 E4.04832
G1 X77.997 Y128.200 E4.67024
G1 X124.022 Y128.200 E6.09431
G1 X124.597 Y128.200 F7800.000
G1 X124.697 Y127.600 F7800.000
G1 X124.697 Y148.900 E6.75336 F1800.000
G1 X77.397 Y148.900 E8.21688
G1 X77.397 Y127.600 E8.87593
G1 X124.622 Y127.600 E10.33714
G1 X124.447 Y128.033 F7800.000
G1 E8.33714 F2400.00000
G92 E0
G1 X119.255 Y61.900 F7800.000
G1 E2.00000 F2400.00000
G1 X112.839 Y61.900 E2.19851 F1800.000
G1 X112.839 Y58.400 E2.30681
G1 X119.255 Y58.400 E2.50532
G1 X119.255 Y61.825 E2.61130
G1 X119.255 Y62.400 F7800.000
G1 X115.495 Y64.302 F7800.000
G1 X116.302 Y66.250 E2.67654 F1800.000
G1 X115.495 Y68.198 E2.74179
G1 X113.547 Y69.005 E2.80704
G1 X111.599 Y68.198 E2.87229
G1 X110.792 Y66.250 E2.93753
G1 X111.599 Y64.302 E3.00278
G1 X111.998 Y64.136 E3.01616
G1 X113.547 Y63.495 E3.06803 F1800.000
G1 X115.426 Y64.273 E3.13096
G1 X115.017 Y64.780 F7800.000
G1 X115.626 Y66.250 E3.18019 F1800.000
G1 X115.017 Y67.720 E3.22942
G1 X113.547 Y68.329 E3.27865
G1 X112.077 Y67.720 E3.32788
G1 X111.468 Y66.250 E3.37711
G1 X112.077 Y64.780 E3.42634
G1 X112.237 Y64.714 E3.43170
G1 X113.547 Y64.171 E3.47557 F1800.000
G1 X114.948 Y64.751 E3.52248
G1 X115.513 Y64.715 F7800.000
G1 E1.52248 F2400.00000
G92 E0
G1 X97.447 Y98.208 F7800.000
G1 E2.00000 F2400.00000
G1 X91.582 Y98.208 E2.18147 F1800.000
G1 X90.974 Y99.677 E2.23066
G1 X88.547 Y100.682 E2.31192
G1 X86.121 Y99.677 E2.39319
G1 X85.116 Y97.250 E2.47446
G1 X86.121 Y94.824 E2.55572
G1 X88.547 Y93.818 E2.63699
G1 X90.974 Y94.823 E2.71825
G1 X91.146 Y95.239 E2.73215
G1 X91.447 Y95.178 E2.74167
G1 X91.447 Y89.066 E2.93081
G1 X90.440 Y87.838 E2.97996
G1 X89.261 Y85.632 E3.05734
G1 X88.535 Y83.239 E3.13473
G1 X88.290 Y80.750 E3.21211
G1 X88.535 Y78.261 E3.28949
G1 X89.261 Y75.868 E3.36687
G1 X90.440 Y73.662 E3.44425
G1 X92.026 Y71.729 E3.52163
G1 X93.959 Y70.143 E3.59901
G1 X96.168 Y68.962 E3.67649
G1 X98.604 Y68.233 E3.75516
G1 X101.047 Y67.992 E3.83113
G1 X103.536 Y68.238 E3.90852
G1 X105.929 Y68.964 E3.98590
G1 X108.135 Y70.143 E4.06328
G1 X110.068 Y71.729 E4.14066
G1 X111.655 Y73.662 E4.21804
G1 X112.834 Y75.868 E4.29542
G1 X113.560 Y78.261 E4.37281
G1 X113.805 Y80.750 E4.45019
G1 X113.560 Y83.239 E4.52757
G1 X112.834 Y85.632 E4.60495
G1 X111.655 Y87.838 E4.68233
G1 X110.068 Y89.771 E4.75971
G1 X108.135 Y91.357 E4.83709
G1 X105.929 Y92.536 E4.91448
G1 X103.536 Y93.262 E4.99186
G1 X101.047 Y93.508 E5.06924
G1 X98.558 Y93.262 E5.14662
G1 X97.447 Y92.925 E5.18256
G1 X97.447 Y98.133 E5.34368
G1 X91.302 Y97.250 F7800.000
G1 X90.495 Y99.198 E5.40893 F1800.000
G1 X88.547 Y100.005 E5.47417
G1 X86.599 Y99.198 E5.53942
G1 X85.792 Y97.250 E5.60467
G1 X86.599 Y95.302 E5.66992
G1 X86.998 Y95.136 E5.68329
G1 X88.547 Y94.495 E5.73516 F1800.000
G1 X90.495 Y95.302 E5.80041
G1 X91.274 Y97.181 E5.86334
G1 X90.626 Y97.250 F7800.000
G1 X90.017 Y98.720 E5.91257 F1800.000
G1 X88.547 Y99.329 E5.96180
G1 X87.077 Y98.720 E6.01103
G1 X86.468 Y97.250 E6.06026
G1 X87.077 Y95.780 E6.10949
G1 X87.237 Y95.714 E6.11486
G1 X88.547 Y95.171 E6.15872 F1800.000
G1 X90.017 Y95.780 E6.20795
G1 X90.597 Y97.181 E6.25486
G1 X91.023 Y97.554 F7800.000
G1 X92.072 Y97.583 F7800.000
G1 X92.072 Y89.917 E6.49204 F1800.000
G1 X93.190 Y89.917 E6.52661
G1 X92.470 Y89.327 E6.55540
G1 X90.962 Y87.489 E6.62897
G1 X89.841 Y85.392 E6.70255
G1 X89.151 Y83.116 E6.77612
G1 X88.918 Y80.750 E6.84969
G1 X89.151 Y78.384 E6.92327
G1 X89.841 Y76.108 E6.99684
G1 X90.962 Y74.011 E7.07041
G1 X92.470 Y72.173 E7.14399
G1 X94.308 Y70.665 E7.21756
G1 X96.407 Y69.543 E7.29119
G1 X98.725 Y68.849 E7.36605
G1 X101.047 Y68.620 E7.43825
G1 X103.414 Y68.853 E7.51183
G1 X105.689 Y69.544 E7.58540
G1 X107.786 Y70.665 E7.65897
G1 X109.624 Y72.173 E7.73254
G1 X111.133 Y74.011 E7.80612
G1 X112.254 Y76.108 E7.87969
G1 X112.944 Y78.384 E7.95326
G1 X113.177 Y80.750 E8.02684
G1 X112.944 Y83.116 E8.10041
G1 X112.254 Y85.392 E8.17398
G1 X111.133 Y87.489 E8.24756
G1 X109.624 Y89.327 E8.32113
G1 X107.786 Y90.835 E8.39470
G1 X105.689 Y91.956 E8.46827
G1 X103.414 Y92.647 E8.54185
G1 X101.047 Y92.880 E8.61542
G1 X98.681 Y92.647 E8.68899
G1 X96.822 Y92.083 E8.74909
G1 X96.822 Y97.583 E8.91927
G1 X92.147 Y97.583 E9.06392
G1 X92.697 Y96.958 F7800.000
G1 X92.697 Y90.542 E9.26243 F1800.000
G1 X94.936 Y90.542 E9.33170
G1 X92.914 Y88.883 E9.41262
G1 X91.484 Y87.140 E9.48239
G1 X90.421 Y85.152 E9.55215
G1 X89.766 Y82.994 E9.62192
G1 X89.546 Y80.750 E9.69168
G1 X89.766 Y78.506 E9.76144
G1 X90.421 Y76.348 E9.83121
G1 X91.484 Y74.360 E9.90097
G1 X92.914 Y72.617 E9.97074
G1 X94.657 Y71.187 E10.04050
G1 X96.646 Y70.123 E10.11029
G1 X98.846 Y69.465 E10.18134
G1 X101.047 Y69.248 E10.24977
G1 X103.291 Y69.469 E10.31953
G1 X105.449 Y70.124 E10.38930
G1 X107.437 Y71.187 E10.45906
G1 X109.180 Y72.617 E10.52883
G1 X110.611 Y74.360 E10.59859
G1 X111.673 Y76.348 E10.66836
G1 X112.328 Y78.506 E10.73812
G1 X112.549 Y80.750 E10.80788
G1 X112.328 Y82.994 E10.87765
G1 X111.673 Y85.152 E10.94741
G1 X110.611 Y87.140 E11.01718
G1 X109.180 Y88.883 E11.08694
G1 X107.437 Y90.313 E11.15671
G1 X105.449 Y91.376 E11.22647
G1 X103.291 Y92.031 E11.29623
G1 X101.047 Y92.252 E11.36600
G1 X98.803 Y92.031 E11.43576
G1 X96.646 Y91.376 E11.50553
G1 X96.197 Y91.136 E11.52126
G1 X96.197 Y96.958 E11.70138
G1 X92.772 Y96.958 E11.80736
G1 X92.197 Y96.958 F7800.000
G1 E9.80736 F2400.00000
G92 E0
G1 X88.547 Y69.682 F7800.000
G1 E2.00000 F2400.00000
G1 X86.121 Y68.677 E2.08127 F1800.000
G1 X85.116 Y66.250 E2.16253
G1 X86.121 Y63.824 E2.24379
G1 X86.759 Y63.559 E2.26518
G1 X88.547 Y62.818 E2.32506 F1800.000
G1 X90.974 Y63.823 E2.40633
G1 X91.979 Y66.250 E2.48759
G1 X90.974 Y68.677 E2.56886
G1 X88.616 Y69.653 E2.64780
G1 X88.547 Y69.005 F7800.000
G1 X86.599 Y68.198 E2.71305 F1800.000
G1 X85.792 Y66.250 E2.77830
G1 X86.599 Y64.302 E2.84354
G1 X86.998 Y64.136 E2.85692
G1 X88.547 Y63.495 E2.90879 F1800.000
G1 X90.495 Y64.302 E2.97404
G1 X91.302 Y66.250 E3.03929
G1 X90.495 Y68.198 E3.10454
G1 X88.616 Y68.977 E3.16746
G1 X88.547 Y68.329 F7800.000
G1 X87.077 Y67.720 E3.21669 F1800.000
G1 X86.468 Y66.250 E3.26592
G1 X87.077 Y64.780 E3.31515
G1 X87.237 Y64.714 E3.32052
G1 X88.547 Y64.171 E3.36438 F1800.000
G1 X90.017 Y64.780 E3.41361
G1 X90.626 Y66.250 E3.46284
G1 X90.017 Y67.720 E3.51207
G1 X88.616 Y68.300 E3.55898
G1 X88.243 Y68.726 F7800.000
G1 E1.55898 F2400.00000
G92 E0
G1 X111.121 Y94.824 F7800.000
G1 E2.00000 F2400.00000
G1 X111.759 Y94.559 E2.02138 F1800.000
G1 X113.547 Y93.818 E2.08127 F1800.000
G1 X115.974 Y94.823 E2.16253
G1 X116.979 Y97.250 E2.24380
G1 X115.974 Y99.677 E2.32506
G1 X113.547 Y100.682 E2.40633
G1 X111.121 Y99.677 E2.48759
G1 X110.116 Y97.250 E2.56886
G1 X111.092 Y94.893 E2.64780
G1 X111.599 Y95.302 F7800.000
G1 X111.998 Y95.136 E2.66118 F1800.000
G1 X113.547 Y94.495 E2.71305 F1800.000
G1 X115.495 Y95.302 E2.77830
G1 X116.302 Y97.250 E2.84355
G1 X115.495 Y99.198 E2.90879
G1 X113.547 Y100.005 E2.97404
G1 X111.599 Y99.198 E3.03929
G1 X110.792 Y97.250 E3.10454
G1 X111.570 Y95.371 E3.16746
G1 X112.077 Y95.780 F7800.000
G1 X112.237 Y95.714 E3.17283 F1800.000
G1 X113.547 Y95.171 E3.21669 F1800.000
G1 X115.017 Y95.780 E3.26592
G1 X115.626 Y97.250 E3.31515
G1 X115.017 Y98.720 E3.36438
G1 X113.547 Y99.329 E3.41361
G1 X112.077 Y98.720 E3.46284
G1 X111.468 Y97.250 E3.51207
G1 X112.049 Y95.849 E3.55898
G1 X112.055 Y95.608 F7800.000
G1 E1.55898 F2400.00000
G92 E0
G1 X111.590 Y57.150 F7800.000
G1 E2.00000 F2400.00000
G1 X111.590 Y63.150 E2.18563 F1800.000
G1 X111.959 Y63.150 E2.19705
G1 X112.019 Y63.452 E2.20657
G1 X111.121 Y63.824 E2.23665
G1 X110.116 Y66.250 E2.31791
G1 X111.121 Y68.677 E2.39917
G1 X113.547 Y69.682 E2.48044
G1 X115.974 Y68.677 E2.56171
G1 X116.979 Y66.250 E2.64297
G1 X115.974 Y63.823 E2.72424
G1 X115.076 Y63.452 E2.75431
G1 X115.136 Y63.150 E2.76383
G1 X119.447 Y63.150 E2.89723
G1 X119.447 Y103.325 E4.14032
G1 X82.647 Y103.325 E5.27897
G1 X82.647 Y72.041 E6.24693
G1 X82.977 Y71.712 E6.26135
G1 X84.041 Y69.141 E6.34744
G1 X84.041 Y66.359 E6.43354
G1 X82.977 Y63.788 E6.51963
G1 X81.009 Y61.821 E6.60572
G1 X80.505 Y61.612 E6.62260
G1 X80.505 Y57.150 E6.76065
G1 X73.647 Y57.150 E6.97285
G1 X73.647 Y52.350 E7.12138
G1 X119.447 Y52.350 E8.53850
G1 X119.447 Y57.150 E8.68704
G1 X111.665 Y57.150 E8.92785
G1 X112.214 Y57.775 F7800.000
G1 X112.214 Y62.525 E9.07481 F1800.000
G1 X120.072 Y62.525 E9.31795
G1 X120.072 Y103.950 E10.59970
G1 X82.022 Y103.950 E11.77702
G1 X82.022 Y71.783 E12.77233
G1 X82.447 Y71.358 E12.79091
G1 X83.416 Y69.017 E12.86931
G1 X83.416 Y66.483 E12.94771
G1 X82.447 Y64.142 E13.02611
G1 X80.655 Y62.350 E13.10451
G1 X79.880 Y62.029 E13.13047
G1 X79.880 Y57.775 E13.26210
G1 X73.022 Y57.775 E13.47429
G1 X73.022 Y51.725 E13.66150
G1 X120.072 Y51.725 E15.11729
G1 X120.072 Y57.775 E15.30449
G1 X112.289 Y57.775 E15.54531
G1 X79.255 Y58.400 F7800.000
G1 X72.839 Y58.400 E15.74382 F1800.000
G1 X72.839 Y61.900 E15.85211
G1 X75.371 Y61.900 E15.93045
G1 X75.431 Y62.202 E15.93997
G1 X74.953 Y62.400 E15.95600
G1 X73.263 Y62.400 E16.00827
G1 X72.397 Y61.534 E16.04617
G1 X72.397 Y51.100 E16.36901
G1 X120.697 Y51.100 E17.86347
G1 X120.697 Y104.575 E19.51806
G1 X81.397 Y104.575 E20.73405
G1 X81.397 Y71.524 E21.75670
G1 X81.917 Y71.004 E21.77945
G1 X82.791 Y68.893 E21.85016
G1 X82.791 Y66.607 E21.92086
G1 X81.917 Y64.496 E21.99157
G1 X80.301 Y62.880 E22.06228
G1 X78.663 Y62.202 E22.11713
G1 X78.723 Y61.900 E22.12665
G1 X79.255 Y61.900 E22.14311
G1 X79.255 Y58.475 E22.24908
G1 X79.255 Y57.900 F7800.000
G1 E20.24908 F2400.00000
G92 E0
G1 X78.356 Y61.953 F7800.000
G1 E2.00000 F2400.00000
G1 X75.738 Y61.953 E2.08099 F1800.000
G1 E0.08099 F2400.00000
G92 E0
G1 X94.966 Y74.110 F7800.000
G1 E2.00000 F2400.00000
G1 X95.403 Y73.673 E2.01915 F1800.000
G1 X97.120 Y72.594 E2.08190
G1 X99.078 Y71.920 E2.14597
G1 X101.047 Y71.698 E2.20728 F1800.000
G1 X103.062 Y71.925 E2.27000
G1 X104.975 Y72.594 E2.33272
G1 X106.691 Y73.673 E2.39544
G1 X108.124 Y75.106 E2.45816
G1 X109.203 Y76.822 E2.52088
G1 X109.872 Y78.736 E2.58360
G1 X110.099 Y80.750 E2.64632
G1 X109.872 Y82.764 E2.70904
G1 X109.203 Y84.678 E2.77176
G1 X108.124 Y86.394 E2.83448
G1 X106.691 Y87.827 E2.89719
G1 X104.975 Y88.906 E2.95991
G1 X103.062 Y89.575 E3.02263
G1 X101.047 Y89.802 E3.08535
G1 X99.033 Y89.575 E3.14807
G1 X97.120 Y88.906 E3.21079
G1 X95.403 Y87.827 E3.27351
G1 X93.970 Y86.394 E3.33623
G1 X92.891 Y84.678 E3.39895
G1 X92.222 Y82.764 E3.46167
G1 X91.995 Y80.750 E3.52439
G1 X92.222 Y78.736 E3.58711
G1 X92.891 Y76.822 E3.64983
G1 X93.970 Y75.106 E3.71255
G1 X94.912 Y74.163 E3.75380
G1 X94.836 Y73.627 F7800.000
G1 X94.495 Y73.687 F7800.000
G1 X94.591 Y73.580 E3.75824 F1800.000
G1 X96.223 Y72.395 E3.82065
G1 X98.066 Y71.574 E3.88306
G1 X100.038 Y71.155 E3.94545
G1 X102.097 Y71.163 E4.00914
G1 X104.029 Y71.574 E4.07026 F1800.000
G1 X105.871 Y72.395 E4.13267
G1 X107.503 Y73.580 E4.19508
G1 X108.853 Y75.079 E4.25748
G1 X109.861 Y76.826 E4.31989
G1 X110.484 Y78.744 E4.38230
G1 X110.695 Y80.750 E4.44471
G1 X110.484 Y82.756 E4.50712
G1 X109.861 Y84.674 E4.56953
G1 X108.853 Y86.421 E4.63194
G1 X107.503 Y87.920 E4.69434
G1 X105.871 Y89.105 E4.75675
G1 X104.029 Y89.926 E4.81916
G1 X102.056 Y90.345 E4.88157
G1 X100.039 Y90.345 E4.94398
G1 X98.066 Y89.926 E5.00639
G1 X96.223 Y89.105 E5.06880
G1 X94.591 Y87.920 E5.13120
G1 X93.242 Y86.421 E5.19361
G1 X92.233 Y84.674 E5.25602
G1 X91.610 Y82.756 E5.31843
G1 X91.399 Y80.750 E5.38084
G1 X91.610 Y78.744 E5.44325
G1 X92.233 Y76.826 E5.50565
G1 X93.242 Y75.079 E5.56806
G1 X94.445 Y73.743 E5.62370
G1 X94.636 Y73.717 F7800.000
G1 E3.62370 F2400.00000
G92 E0
G1 X84.551 Y67.291 F7800.000
G1 E2.00000 F2400.00000
G1 X84.371 Y66.382 E2.02868 F1800.000
G1 X84.702 Y65.953 F7800.000
G1 X84.099 Y65.351 E2.05531 F1800.000
G1 X85.084 Y65.443 E2.08621
G1 X83.468 Y63.828 E2.15758
G1 X85.345 Y64.812 F7800.000
G1 X80.883 Y60.350 E2.35470 F1800.000
G1 X80.883 Y59.458 E2.38257
G1 X85.607 Y64.181 E2.59122
G1 X85.876 Y63.559 E2.61242
G1 X80.883 Y58.566 E2.83299
G1 X80.883 Y57.674 E2.86086
G1 X86.507 Y63.298 E3.10930
G1 X87.138 Y63.036 E3.13064
G1 X76.830 Y52.728 E3.58601
G1 X77.722 Y52.728 E3.61388
G1 X87.769 Y62.775 E4.05771
G1 X88.400 Y62.514 E4.07904
G1 X78.615 Y52.728 E4.51133
G1 X79.507 Y52.728 E4.53920
G1 X89.527 Y62.749 E4.98188
G1 X91.050 Y63.380 F7800.000
G1 X80.399 Y52.728 E5.45242 F1800.000
G1 X81.291 Y52.728 E5.48029
G1 X96.934 Y68.371 E6.17136
G1 X96.248 Y68.577 E6.19375
G1 X91.418 Y63.747 E6.40712
G1 X92.048 Y65.270 F7800.000
G1 X95.644 Y68.866 E6.56598 F1800.000
G1 X95.063 Y69.177 E6.58657
G1 X92.284 Y66.397 E6.70935
G1 X92.022 Y67.028 E6.73069
G1 X94.481 Y69.487 E6.83933
G1 X93.900 Y69.798 E6.85992
G1 X91.761 Y67.659 E6.95442
G1 X91.500 Y68.290 E6.97575
G1 X93.395 Y70.186 E7.05950
G1 X92.905 Y70.588 E7.07930
G1 X91.238 Y68.921 E7.15294
G1 X90.616 Y69.191 E7.17413
G1 X92.415 Y70.990 E7.25363
G1 X91.925 Y71.392 E7.27343
G1 X89.985 Y69.452 E7.35915
G1 X89.354 Y69.713 E7.38048
G1 X91.500 Y71.859 E7.47527
G1 X91.098 Y72.349 E7.49508
G1 X88.723 Y69.974 E7.59997
G1 X87.636 Y69.780 E7.63446
G1 X90.695 Y72.839 E7.76961
G1 X84.606 Y67.642 F7800.000
G1 X90.293 Y73.329 E8.02084 F1800.000
G1 X89.949 Y73.877 E8.04106
G1 X84.420 Y68.348 E8.28531
G1 X84.382 Y69.202 E8.31202
G1 X89.638 Y74.458 E8.54423
G1 X89.327 Y75.040 E8.56482
G1 X84.121 Y69.833 E8.79484
G1 X83.859 Y70.464 E8.81617
G1 X89.017 Y75.621 E9.04401
G1 X88.776 Y76.273 E9.06572
G1 X83.598 Y71.095 E9.29449
G1 X83.337 Y71.726 E9.31582
G1 X88.569 Y76.958 E9.54696
G1 X88.361 Y77.642 E9.56931
G1 X83.026 Y72.307 E9.80502
G1 X83.026 Y73.199 E9.83289
G1 X88.160 Y78.333 E10.05970
G1 X88.080 Y79.145 E10.08520
G1 X83.026 Y74.091 E10.30848
G1 X83.026 Y74.983 E10.33635
G1 X88.000 Y79.957 E10.55609
G1 X87.920 Y80.770 E10.58159
G1 X83.026 Y75.876 E10.79780
G1 X83.026 Y76.768 E10.82567
G1 X87.993 Y81.735 E11.04510
G1 X88.090 Y82.724 E11.07616
G1 X83.026 Y77.660 E11.29990
G1 X83.026 Y78.552 E11.32777
G1 X88.259 Y83.785 E11.55896
G1 X88.647 Y85.066 E11.60076
G1 X83.026 Y79.444 E11.84911
G1 X83.026 Y80.337 E11.87698
G1 X89.227 Y86.538 E12.15095
G1 X90.570 Y88.773 F7800.000
G1 X83.026 Y81.229 E12.48424 F1800.000
G1 X83.026 Y82.121 E12.51211
G1 X91.069 Y90.164 E12.86744
G1 X91.069 Y91.056 E12.89531
G1 X83.026 Y83.013 E13.25064
G1 X83.026 Y83.905 E13.27852
G1 X91.069 Y91.949 E13.63385
G1 X91.069 Y92.841 E13.66172
G1 X83.026 Y84.798 E14.01705
G1 X83.026 Y85.690 E14.04492
G1 X91.069 Y93.733 E14.40025
G1 X90.663 Y94.219 E14.42003
G1 X83.026 Y86.582 E14.75742
G1 X83.026 Y87.474 E14.78529
G1 X89.140 Y93.588 E15.05539
G1 X88.239 Y93.580 F7800.000
G1 X83.026 Y88.366 E15.28573 F1800.000
G1 X83.026 Y89.259 E15.31360
G1 X87.608 Y93.841 E15.51606
